X: 46
T:Highland Mary
C:Trad Morris
S:Bampton
M:4/4
L:1/8
K:G
D2 | G2 AGFE D2 |G2 AB c2 Bc| d2 dedc BA| GABG E2 D2 |  G2 AGFE D2 |G2 A
B c2 Bc| d2 dedc BA| G2F2G2 :|
GABc d2d2| ed dB c2 Bc|d2dedc BA|GABG E2 D2|G2 AGFE D2 | G2 AB c2| Bc d2
 de dc|BA G2  F2 G2:|
